X:1
T:J'ay de vous voir
T:Orlando di Lasso
T:J'ay de vous voir
C:Orlando di Lasso
%%score [ 1 2 3 4 ]
L:1/8
Q:1/4=80
M:2/2
K:Bb
V:1 treble nm="Soprano" snm="S"
V:2 treble nm="Alto" snm="A"
V:3 treble-8 nm="Tenor" snm="T"
V:4 bass nm="Bass" snm="B"
V:1
"^Du Bellay" z8 | G4 B4 | c2 B B2 ede- | ec f2 B4 | z BBB G2 z e | ee c2 B3 G | AB c3 B/A/ B2 | %7
w: |J'ay de|vous voir beau- coup plus grand'|_ en- vi- e|Qu'un pri- son- nier, Qu'un|pri- son- nier d'a- voir|sa li- ber- * * *|
 ccGG B2 F2 | _A2 G2 G2 c2 | =B2 z c A3 A | ^F2 z B G3 G | =E4 z4 | G2 AB cB G/F/ G/A/ | %13
w: té, N'y qu'un a- veu- gle~a|d'a- voir la clar-|té, N'y qu'un mou-|rant, N'y qu'un mou-|rant,|de se re- voir en vi- * * *|
 B2 AA Bc d2 | z2 GA =B c2 B | c2 AA Bc d2 | G B2 A z GAB | c2 z d c B2 A- | AG G3 ^F/=E/ F2 | %19
w: * e, de se re- voir,|de se re- voir en|vi- e, de se re- voir|en vi- e, de se re-|voir, de se re- voir|_ en vi- * * *|
 G8 |] %20
w: e.|
V:2
 z2 D4 F2 | E2 D2 G2 F2- | FC G2 B4 | _A4 G4 | z GGG E2 z G | GGEF G F/E/ D2 | D2 G4 G2 | %7
w: J'ay de|vous voir beau- coup|_ plus grand' en-|vi- e|Qu'un pri- son- nier, Qu'un|pri- son- nier d'a- voir _ _ _|sa li- ber-|
 =E4 z GDD | FFEC G, G3/2F/4E/4F | G2 z G F3 F | D2 z F E3 E | C2 z C DE F2 | z EFG F2 =E2 | %13
w: té, N'y qu'un a-|veu- gle~a d'a- voir la clar- * * *|té, N'y qu'un mou-|rant, N'y qu'un mou-|rant de se re- voir|de se re- voir en|
 G2 CC DEFG | F2 E2 z2 G2 | AB c2 z2 F2 | EFGF ED z F | GA B2 F2 EC | E D3/2C/4B,/4C D4 | =B,8 |] %20
w: vi- e, de se re- voir en|vi- e, de|se re- voir, de|se re- voir en vi- e, de|se re- voir, de se re-|voir en _ _ _ vi-|e.|
V:3
 G4 B4 | c2 B2 d e2 d | c e2 d g2 fB | c/d/ e2 d e2 z d | ed e2 z BcB | c2 z c ed g2 | %6
w: J'ay de|vous voir J'ay de vous|voir beau- coup plus grand' en-|vi- * * * e Qu'un|pri- son- nier, Qu'un pri- son-|nier, Qu'un pri- son- nier|
 f2 ee d2 d2 | c2 z g2 ddf- | f c2 e de c2 | d2 z e c2 d2 | A2 z d B2 c2 | G4 B2 cd | %12
w: d'a- voir sa li- ber-|té, N'y qu'un a- veu-|* gle~a d'a- voir la clar-|té, N'y qu'un mou-|rant, N'y qu'un mou-|rant de se re-|
 e2 d2 cd z c | de f4 B2 | cdec de d2 | f4 e2 dB | cdcc B2 fd | eedG ABcc | B2 AG A4 | G8 |] %20
w: voir en vi- e, de|se re- voir, de|se re- voir, de se re- voir|en vi- e, de|se re- voir en vi- e, de|se re- voir, de se re- voir en|vi- * * *|e.|
V:4
 z8 | z2 G,4 B,2 | _A,2 G,2 E,2 B,G, | _A,A, F,2 E,2 z G, | G,G, E,2 z E,E,E, | %5
w: |J'ay de|vous voir beau- coup plus|grand' en- vi- e Qu'un|pri- son- nier, Qu'un pri- son-|
 C,2 _A,2 G,3 F,/E,/ | D,2 C,2 G,2 G,2 | C,2 C2 G,G, B,2 | F,2 C2 =B,C _A,2 | G,2 z C F,2 D,2 | %10
w: nier d'a- voir _ _|_ sa li- ber-|té, N'y qu'un a- veu-|gle~a d'a- voir la clar-|té, N'y qu'un mou-|
 D,2 z B, E,2 C,2 | C,4 G,2 A,B, | C2 z G, A,B, C2 | G,2 F,2 B,2 z G, | A,B, C2 G,4 | %15
w: rant, N'y qu'un mou-|rant de se re-|voir de se re- voir|en vi- e, de|se re- voir en|
 F,2 F,F, G,A, B,2 | z D,E,F, G,2 D,2 | C,2 G,2 z D,E,F, | G,2 E,2 D,4 | G,8 |] %20
w: vi- e, de se re- voir,|de se re- voir en|vi- e, de se re-|voir en vi-|e.|

